packages/dnb-ui-lib/assets/icons/dismiss_keyboard.svg

<svg width="17" height="16" viewBox="0 0 17 16" fill="none" xmlns="http://www.w3.org/2000/svg">
<path d="M8.08334 14.9286L7.64741 15.5389C7.90818 15.7251 8.25849 15.7251 8.51926 15.5389L8.08334 14.9286ZM10.5193 14.1103C10.8563 13.8695 10.9344 13.4011 10.6936 13.0641C10.4529 12.727 9.98447 12.6489 9.64741 12.8897L10.5193 14.1103ZM6.51926 12.8897C6.18221 12.6489 5.71379 12.727 5.47304 13.0641C5.23228 13.4011 5.31035 13.8695 5.64741 14.1103L6.51926 12.8897ZM4.75 6.58333C4.33579 6.58333 4 6.91912 4 7.33333C4 7.74755 4.33579 8.08333 4.75 8.08333V6.58333ZM11.0833 8.08333C11.4975 8.08333 11.8333 7.74755 11.8333 7.33333C11.8333 6.91912 11.4975 6.58333 11.0833 6.58333V8.08333ZM8.51926 15.5389L10.5193 14.1103L9.64741 12.8897L7.64741 14.3183L8.51926 15.5389ZM5.64741 14.1103L7.64741 15.5389L8.51926 14.3183L6.51926 12.8897L5.64741 14.1103ZM1.41667 1.75H14.75V0.25H1.41667V1.75ZM14.6667 1.66667V9.66667H16.1667V1.66667H14.6667ZM14.75 9.58333H1.41667V11.0833H14.75V9.58333ZM1.5 9.66667V1.66667H0V9.66667H1.5ZM1.41667 9.58333C1.46269 9.58333 1.5 9.62064 1.5 9.66667H0C0 10.4491 0.634263 11.0833 1.41667 11.0833V9.58333ZM14.6667 9.66667C14.6667 9.62064 14.704 9.58333 14.75 9.58333V11.0833C15.5324 11.0833 16.1667 10.4491 16.1667 9.66667H14.6667ZM14.75 1.75C14.704 1.75 14.6667 1.71269 14.6667 1.66667H16.1667C16.1667 0.884263 15.5324 0.25 14.75 0.25V1.75ZM1.41667 0.25C0.634263 0.25 0 0.884264 0 1.66667H1.5C1.5 1.71269 1.46269 1.75 1.41667 1.75V0.25ZM4.75 8.08333H11.0833V6.58333H4.75V8.08333Z" fill="black"/>
<path d="M4.74984 4.33329C4.74984 4.70148 4.45136 4.99996 4.08317 4.99996C3.71498 4.99996 3.4165 4.70148 3.4165 4.33329C3.4165 3.9651 3.71498 3.66663 4.08317 3.66663C4.45136 3.66663 4.74984 3.9651 4.74984 4.33329Z" fill="black"/>
<path d="M10.0832 4.33329C10.0832 4.70148 9.78469 4.99996 9.4165 4.99996C9.04831 4.99996 8.74984 4.70148 8.74984 4.33329C8.74984 3.9651 9.04831 3.66663 9.4165 3.66663C9.78469 3.66663 10.0832 3.9651 10.0832 4.33329Z" fill="black"/>
<path d="M7.4165 4.33329C7.4165 4.70148 7.11803 4.99996 6.74984 4.99996C6.38165 4.99996 6.08317 4.70148 6.08317 4.33329C6.08317 3.9651 6.38165 3.66663 6.74984 3.66663C7.11803 3.66663 7.4165 3.9651 7.4165 4.33329Z" fill="black"/>
<path d="M12.7498 4.33329C12.7498 4.70148 12.4514 4.99996 12.0832 4.99996C11.715 4.99996 11.4165 4.70148 11.4165 4.33329C11.4165 3.9651 11.715 3.66663 12.0832 3.66663C12.4514 3.66663 12.7498 3.9651 12.7498 4.33329Z" fill="black"/>
</svg>

<svg width="16" height="16" viewBox="0 0 17 16" fill="none" xmlns="http://www.w3.org/2000/svg"><path d="M8.083 14.929l-.436.61a.75.75 0 00.872 0l-.436-.61zm2.436-.819a.75.75 0 00-.872-1.22l.872 1.22zm-4-1.22a.75.75 0 10-.872 1.22l.872-1.22zM4.75 6.583a.75.75 0 000 1.5v-1.5zm6.333 1.5a.75.75 0 000-1.5v1.5zM8.52 15.54l2-1.429-.872-1.22-2 1.428.872 1.22zm-2.873-1.43l2 1.429.872-1.22-2-1.43-.872 1.221zM1.417 1.75H14.75V.25H1.417v1.5zm13.25-.083v8h1.5v-8h-1.5zm.083 7.916H1.417v1.5H14.75v-1.5zM1.5 9.667v-8H0v8h1.5zm-.083-.084c.046 0 .083.038.083.084H0c0 .782.634 1.416 1.417 1.416v-1.5zm13.25.084c0-.046.037-.084.083-.084v1.5c.782 0 1.417-.634 1.417-1.416h-1.5zm.083-7.917a.083.083 0 01-.083-.083h1.5c0-.783-.635-1.417-1.417-1.417v1.5zM1.417.25C.634.25 0 .884 0 1.667h1.5a.083.083 0 01-.083.083V.25zM4.75 8.083h6.333v-1.5H4.75v1.5zm0-3.75a.667.667 0 11-1.334 0 .667.667 0 011.334 0zm5.333 0a.667.667 0 11-1.333 0 .667.667 0 011.333 0zm-2.666 0a.667.667 0 11-1.334 0 .667.667 0 011.333 0zm5.333 0a.667.667 0 11-1.333 0 .667.667 0 011.333 0z" fill="#000"/></svg>
